build/Karasa-Jaga/scalable/apps/eog-symbolic.svg

<svg height="16" width="16" xmlns="http://www.w3.org/2000/svg"><path d="m.07485274 2.1228532.58060855 10.8555918 4.88926301-.2615c-.2301438-.33661-.4250728-.697013-.5804195-1.080077l-3.1578501.168897-.4620917-8.639692 12.226052-.6539073.126467 2.3645272c.495258.3663499.926733.8152038 1.284273 1.3192422l-.259746-4.8564491z" fill="#bbbdb6" fill-opacity=".878431"/><g fill="#bebebe"><path d="m10.053409 5.0502699c-2.4450927.1307751-4.340114 2.2407981-4.2093811 4.6851005.1307328 2.4443026 2.2400074 4.3401566 4.6851001 4.2093816.866837-.04637 1.649244-.362289 2.309163-.83586l1.366489 1.227736c.361116.418585 1.092318.434067 1.470877.03115.378509-.402909.317439-1.131672-.122812-1.466013l-1.399075-1.257018c.402407-.708814.631296-1.515563.584786-2.3851465-.130733-2.4443037-2.240007-4.3401579-4.6851-4.2093827zm.08754 1.6367824c1.572051-.084081 2.876721 1.0885858 2.960776 2.6601426.03979.7441111-.205552 1.4302531-.638796 1.9544271-.07949.06471-.148749.141853-.204623.227747-.145064.141062-.30153.258363-.475968.366149l-.03084.0017c-.386177.233246-.823653.384745-1.309875.41075-1.5720409.08403-2.9075459-1.086988-2.9916002-2.6585431-.0840543-1.5715563 1.118926-2.878344 2.6909762-2.9624246z" stroke-width=".989688"/><path d="m5.9853528 4.4877424c-.1371679.01045-.2619873.087032-.327569.209159l-2.8166404 5.2455356c-.069763.129905-.055172.244462.012896.34968.068069.105223.1991391.188731.3657951.179818l1.3801117-.07381c-.030917-.194576-.051945-.392127-.062681-.5928578-.00258-.048208.00145-.095248.0000813-.1432495l-.4478124.02395a.13780955.11344796 86.938467 0 1 -.1025936-.2171283l.7059872-1.3134167c.2990668-1.2314304 1.000365-2.3161235 1.95937-3.1052057l-.306249-.4056132c-.0845519-.1117957-.2235284-.1673197-.3606959-.1568614zm4.7140062 3.5554886.818808 1.0131248a.13780955.11344796 86.938467 0 1 -.07447.2362726l-2.6810878.1433969c-.00155.047921-.00851.094288-.00587.1435593.011488.2147881.062818.4121157.1456805.5884174l2.8046183-.150004c.06562-.1830244.09955-.3827098.08787-.6009094-.038028-.7110774-.469665-1.2223153-1.095549-1.3738576z" opacity=".48" stroke-width="1.024045"/></g></svg>

<?xml version="1.0" encoding="UTF-8" standalone="no"?>
<!-- Created with Inkscape (http://www.inkscape.org/) -->

<svg
   xmlns:osb="http://www.openswatchbook.org/uri/2009/osb"
   xmlns:dc="http://purl.org/dc/elements/1.1/"
   xmlns:cc="http://creativecommons.org/ns#"
   xmlns:rdf="http://www.w3.org/1999/02/22-rdf-syntax-ns#"
   xmlns:svg="http://www.w3.org/2000/svg"
   xmlns="http://www.w3.org/2000/svg"
   xmlns:xlink="http://www.w3.org/1999/xlink"
   xmlns:sodipodi="http://sodipodi.sourceforge.net/DTD/sodipodi-0.dtd"
   xmlns:inkscape="http://www.inkscape.org/namespaces/inkscape"
   version="1.1"
   width="16"
   height="16"
   id="svg3808"
   inkscape:version="0.92.2 (unknown)"
   sodipodi:docname="eog-symbolic.svg">
  <sodipodi:namedview
     pagecolor="#ffffff"
     bordercolor="#666666"
     borderopacity="1"
     objecttolerance="10"
     gridtolerance="10"
     guidetolerance="10"
     inkscape:pageopacity="0"
     inkscape:pageshadow="2"
     inkscape:window-width="1366"
     inkscape:window-height="716"
     id="namedview7"
     showgrid="false"
     showguides="false"
     inkscape:guide-bbox="true"
     inkscape:zoom="14.409952"
     inkscape:cx="10.417457"
     inkscape:cy="7.9602518"
     inkscape:window-x="0"
     inkscape:window-y="27"
     inkscape:window-maximized="1"
     inkscape:current-layer="svg3808">
    <inkscape:grid
       type="xygrid"
       id="grid3053" />
    <sodipodi:guide
       position="2.5516777,-3.5330922"
       orientation="0,1"
       id="guide878"
       inkscape:locked="false" />
  </sodipodi:namedview>
  <defs
     id="defs3810">
    <linearGradient
       inkscape:collect="always"
       xlink:href="#XMLID_19_"
       id="linearGradient12942"
       gradientUnits="userSpaceOnUse"
       gradientTransform="matrix(0,-0.44649484,0.43865775,0,44.314056,98.880451)"
       x1="180.37399"
       y1="-157.96339"
       x2="188.83299"
       y2="-157.96339" />
    <linearGradient
       id="XMLID_19_"
       gradientUnits="userSpaceOnUse"
       x1="180.37399"
       y1="-157.96339"
       x2="188.83299"
       y2="-157.96339"
       gradientTransform="matrix(0,-1.8884098,1.8552635,0,317.52681,460.62003)">
      <stop
         offset="0"
         style="stop-color:#DDDDDD"
         id="stop126" />
      <stop
         offset="0.2738"
         style="stop-color:#BBBBBB"
         id="stop128" />
      <stop
         offset="0.5617"
         style="stop-color:#9F9F9F"
         id="stop130" />
      <stop
         offset="0.8136"
         style="stop-color:#8E8E8E"
         id="stop132" />
      <stop
         offset="1"
         style="stop-color:#888888"
         id="stop134" />
    </linearGradient>
    <linearGradient
       inkscape:collect="always"
       xlink:href="#linearGradient6253-0"
       id="linearGradient12938"
       gradientUnits="userSpaceOnUse"
       gradientTransform="matrix(0.29171261,0,0,0.49647278,-6.3928271,69.131208)"
       x1="-35.539001"
       y1="-144.21001"
       x2="-35.539001"
       y2="-108.32" />
    <linearGradient
       id="linearGradient6253-0">
      <stop
         style="stop-color:#ffffff;stop-opacity:1"
         offset="0"
         id="stop6255-0" />
      <stop
         id="stop6257-8"
         offset="0.64336616"
         style="stop-color:#efefef;stop-opacity:1" />
      <stop
         style="stop-color:#e5e5e5;stop-opacity:1"
         offset="1"
         id="stop6259-5" />
    </linearGradient>
    <linearGradient
       inkscape:collect="always"
       xlink:href="#linearGradient3214"
       id="linearGradient12940"
       gradientUnits="userSpaceOnUse"
       gradientTransform="matrix(0.79749691,0,0,1.368051,-28.610824,-12.086273)"
       x1="7.8513999"
       y1="19.968"
       x2="7.8513999"
       y2="7.0348001" />
    <linearGradient
       x1="7.8513999"
       y1="19.968"
       gradientTransform="matrix(0.64516,0,0,0.97976,0.25806,-6.7257)"
       x2="7.8513999"
       gradientUnits="userSpaceOnUse"
       y2="7.0348001"
       id="linearGradient3214">
      <stop
         offset="0"
         style="stop-color:#848484;stop-opacity:1;"
         id="stop3486" />
      <stop
         offset="1"
         style="stop-color:#bebebe;stop-opacity:1;"
         id="stop3488" />
    </linearGradient>
    <linearGradient
       inkscape:collect="always"
       xlink:href="#linearGradient3217"
       id="linearGradient12936"
       gradientUnits="userSpaceOnUse"
       gradientTransform="matrix(0.86516705,0,0,1.4752569,9.9026508,-95.765287)"
       x1="46.426998"
       y1="101.88"
       x2="46.426998"
       y2="85.788002" />
    <linearGradient
       x1="46.426998"
       y1="101.88"
       gradientTransform="matrix(0.12584,0,0,0.1986,0.13145,-5.1684)"
       x2="46.426998"
       gradientUnits="userSpaceOnUse"
       y2="85.788002"
       id="linearGradient3217">
      <stop
         offset="0"
         style="stop-color:#aaa"
         id="stop2223" />
      <stop
         offset="1"
         style="stop-color:#646464"
         id="stop2219" />
    </linearGradient>
    <linearGradient
       y2="85.788002"
       x2="46.426998"
       y1="101.88"
       x1="46.426998"
       gradientTransform="matrix(0.15555368,0,0,0.26524546,-28.767329,-8.8387032)"
       gradientUnits="userSpaceOnUse"
       id="linearGradient13048"
       xlink:href="#linearGradient3217"
       inkscape:collect="always" />
    <linearGradient
       x1="8.2128801"
       y1="0.95885509"
       x2="8.2128801"
       y2="14.985587"
       id="linearGradient3899"
       xlink:href="#linearGradient3798-3"
       gradientUnits="userSpaceOnUse"
       gradientTransform="matrix(1,0,0,-1,0,16)" />
    <linearGradient
       id="linearGradient3798-3">
      <stop
         id="stop3800-9"
         style="stop-color:#bebebe;stop-opacity:0.69800001"
         offset="0" />
      <stop
         id="stop3802-0"
         style="stop-color:#bebebe;stop-opacity:1"
         offset="1" />
    </linearGradient>
    <radialGradient
       cx="8"
       cy="13.70627"
       r="5.4887881"
       fx="8"
       fy="13.70627"
       id="radialGradient3922"
       xlink:href="#linearGradient3798-3"
       gradientUnits="userSpaceOnUse"
       gradientTransform="matrix(2.0028749,0,0,2.103321,-27.472015,-17.454038)" />
    <linearGradient
       id="linearGradient5606"
       osb:paint="solid">
      <stop
         id="stop5608"
         offset="0"
         style="stop-color:#000000;stop-opacity:1;" />
    </linearGradient>
    <linearGradient
       inkscape:collect="always"
       gradientTransform="matrix(0.08112299,0,0,0.07855526,540.8143,254.8467)"
       gradientUnits="userSpaceOnUse"
       xlink:href="#linearGradient3785"
       id="linearGradient3189"
       x1="365.51193"
       x2="365.97757"
       y1="408.39655"
       y2="520.1709" />
    <linearGradient
       id="linearGradient3785">
      <stop
         id="stop3787"
         offset="0"
         style="stop-color:#384880;stop-opacity:1;" />
      <stop
         id="stop3789"
         offset="1"
         style="stop-color:#000000;stop-opacity:1;" />
    </linearGradient>
    <linearGradient
       x1="8.2128801"
       y1="0.95885509"
       x2="8.2128801"
       y2="14.985587"
       id="linearGradient3899-9"
       xlink:href="#linearGradient3798-3-2"
       gradientUnits="userSpaceOnUse"
       gradientTransform="matrix(1,0,0,-1,0,16)" />
    <linearGradient
       id="linearGradient3798-3-2">
      <stop
         id="stop3800-9-5"
         style="stop-color:#bebebe;stop-opacity:0.69800001"
         offset="0" />
      <stop
         id="stop3802-0-1"
         style="stop-color:#bebebe;stop-opacity:1"
         offset="1" />
    </linearGradient>
    <radialGradient
       cx="8"
       cy="13.70627"
       r="5.4887881"
       fx="8"
       fy="13.70627"
       id="radialGradient3922-0"
       xlink:href="#linearGradient3798-3-2"
       gradientUnits="userSpaceOnUse"
       gradientTransform="matrix(2.0028749,0,0,2.103321,-27.472015,-17.454038)" />
  </defs>
  <metadata
     id="metadata3813">
    <rdf:RDF>
      <cc:Work
         rdf:about="">
        <dc:format>image/svg+xml</dc:format>
        <dc:type
           rdf:resource="http://purl.org/dc/dcmitype/StillImage" />
        <dc:title></dc:title>
      </cc:Work>
    </rdf:RDF>
  </metadata>
  <g
     id="g3077"
     transform="matrix(0.98968835,0,0,0.98968835,-122.2452,-160.85953)" />
  <g
     id="g3077-0"
     transform="matrix(0.98968835,0,0,0.98968835,-138.98004,125.64883)" />
  <g
     id="layer9"
     inkscape:label="status"
     style="display:inline"
     transform="matrix(0.98968835,0,0,0.98968835,-424.94341,188.32973)" />
  <g
     id="layer1"
     inkscape:label="places"
     style="display:inline"
     transform="matrix(0.98968835,0,0,0.98968835,-186.42832,-422.30798)" />
  <g
     id="layer14"
     inkscape:label="mimetypes"
     style="display:inline"
     transform="matrix(0.98968835,0,0,0.98968835,-424.94341,188.32973)" />
  <g
     id="layer15"
     inkscape:label="emblems"
     style="display:inline"
     transform="matrix(0.98968835,0,0,0.98968835,-424.94341,188.32973)" />
  <g
     id="g71291"
     inkscape:label="emotes"
     style="display:inline"
     transform="matrix(0.98968835,0,0,0.98968835,-424.94341,188.32973)" />
  <g
     id="layer2"
     inkscape:label="categories"
     style="display:inline"
     transform="matrix(0.98968835,0,0,0.98968835,-186.42832,-273.85473)" />
  <g
     id="g6058"
     inkscape:label="apps"
     style="display:inline"
     transform="matrix(0.98968835,0,0,0.98968835,-186.42832,-273.85473)" />
  <g
     id="layer12"
     inkscape:label="actions"
     style="display:inline"
     transform="matrix(0.98968835,0,0,0.98968835,-424.94341,188.32973)" />
  <path
     style="opacity:1;fill:#bbbdb6;fill-opacity:0.87843137;stroke:none;stroke-width:1.04505551"
     d="M 0.07485274,2.1228532 0.65546129,12.978445 5.5447243,12.716945 C 5.3145805,12.380335 5.1196515,12.019932 4.9643048,11.636868 L 1.8064547,11.805765 1.344363,3.166073 13.570415,2.5121657 13.696882,4.8766929 c 0.495258,0.3663499 0.926733,0.8152038 1.284273,1.3192422 L 14.721409,1.339486 Z"
     id="rect910"
     inkscape:connector-curvature="0" />
  <path
     inkscape:connector-curvature="0"
     id="path12213"
     style="color:#000000;text-indent:0;text-transform:none;fill:#bebebe;stroke-width:0.98968834;enable-background:new"
     d="M 10.053409,5.0502699 C 7.6083163,5.181045 5.713295,7.291068 5.8440279,9.7353704 c 0.1307328,2.4443026 2.2400074,4.3401566 4.6851001,4.2093816 0.866837,-0.04637 1.649244,-0.362289 2.309163,-0.83586 l 1.366489,1.227736 c 0.361116,0.418585 1.092318,0.434067 1.470877,0.03115 0.378509,-0.402909 0.317439,-1.131672 -0.122812,-1.466013 L 14.15377,11.644747 c 0.402407,-0.708814 0.631296,-1.515563 0.584786,-2.3851465 -0.130733,-2.4443037 -2.240007,-4.3401579 -4.6851,-4.2093827 z m 0.08754,1.6367824 c 1.572051,-0.084081 2.876721,1.0885858 2.960776,2.6601426 0.03979,0.7441111 -0.205552,1.4302531 -0.638796,1.9544271 -0.07949,0.06471 -0.148749,0.141853 -0.204623,0.227747 -0.145064,0.141062 -0.30153,0.258363 -0.475968,0.366149 l -0.03084,0.0017 c -0.386177,0.233246 -0.823653,0.384745 -1.309875,0.41075 C 8.8695821,12.391998 7.5340771,11.22098 7.4500228,9.6494249 7.3659685,8.0778686 8.5689488,6.7710809 10.140999,6.6870003 Z" />
  <path
     style="opacity:0.47999998;fill:#bebebe;fill-opacity:1;stroke-width:1.02404463"
     d="m 5.9853528,4.4877424 c -0.1371679,0.01045 -0.2619873,0.087032 -0.327569,0.209159 L 2.8411434,9.942437 c -0.069763,0.129905 -0.055172,0.244462 0.012896,0.34968 0.068069,0.105223 0.1991391,0.188731 0.3657951,0.179818 l 1.3801117,-0.07381 c -0.030917,-0.194576 -0.051945,-0.392127 -0.062681,-0.5928578 -0.00258,-0.048208 0.00145,-0.095248 8.13e-5,-0.1432495 l -0.4478124,0.02395 A 0.13780955,0.11344796 86.938467 0 1 3.9869405,9.4688394 L 4.6929277,8.1554227 C 4.9919945,6.9239923 5.6932927,5.8392992 6.6522977,5.050217 L 6.3460487,4.6446038 C 6.2614968,4.5328081 6.1225203,4.4772841 5.9853528,4.4877424 Z m 4.7140062,3.5554886 0.818808,1.0131248 a 0.13780955,0.11344796 86.938467 0 1 -0.07447,0.2362726 L 8.7626092,9.4360253 c -0.00155,0.047921 -0.00851,0.094288 -0.00587,0.1435593 0.011488,0.2147881 0.062818,0.4121157 0.1456805,0.5884174 l 2.8046183,-0.150004 c 0.06562,-0.1830244 0.09955,-0.3827098 0.08787,-0.6009094 C 11.75688,8.7060112 11.325243,8.1947733 10.699359,8.043231 Z"
     id="Combined-Shape"
     inkscape:connector-curvature="0" />
</svg>
